X: 491
T: Cotton-Eyed Joe
B: jims roots
M:4/4
L:1/8
R: reel
Q: 1/4=100
K:Amaj
V:1 
|:"A"cABA "D"FAEA|"A"cABc "D"d2ed|"A"cABA "D"FAEA|"A"cA"E"Bc "D"A2AB:|
|:"A"cefe "D"a4|"A"aefa "E"e4|"A"aefa "D"ecAB|"A"cA"E"Bc "A"A4:|
% abcbook-tune_id 6298c245a569979d1ad93fed


% abcbook-boost 0
% abcbook-tablature 
% abcbook-transpose 
% abcbook-lastupdated 1654178373817
% abcbook-soundfonts 
% abcbook-repeats 1


